src/app/components/images/Position_marker_2.svg

<svg width="43" height="43" fill="none" xmlns="http://www.w3.org/2000/svg"><mask id="a" style="mask-type:alpha" maskUnits="userSpaceOnUse" x="4" y="4" width="35" height="35"><circle cx="21.5" cy="21.5" r="17.5" fill="#C9CC42"/></mask><g mask="url(#a)"><path fill="#E333DC" d="M-17.724-9.276H65.15v63.965h-82.874z"/><path d="M44.62 4C28.188 39.505 16.87 42.223-7.939 9.36l3.514 34.462 52.56-5.36L44.62 4z" fill="#D51DCD"/><path d="m23.896 29.192-4.344-.168c-.912 0-1.584.016-2.016.048a29.99 29.99 0 0 1-.696.048c-.08-.064-.12-.48-.12-1.248 0-.784.064-1.264.192-1.44a62.863 62.863 0 0 0 3.792-3.888c2.464-2.736 3.696-4.608 3.696-5.616s-.752-1.512-2.256-1.512c-1.216 0-2.048.432-2.496 1.296a6.507 6.507 0 0 0-.672 1.944c-.032.032-.16.048-.384.048-.208 0-.512-.04-.912-.12-.384-.08-.608-.152-.672-.216-.064-.064-.096-.368-.096-.912 0-.56.032-1.28.096-2.16.064-.896.128-1.368.192-1.416.064-.064.336-.16.816-.288 1.344-.368 2.816-.552 4.416-.552 1.616 0 2.904.336 3.864 1.008.976.656 1.464 1.504 1.464 2.544 0 1.136-.752 2.648-2.256 4.536a79.428 79.428 0 0 1-3.864 4.488l-.672.744c-.048.112.408.168 1.368.168 2.624 0 4.464-.168 5.52-.504.048 0 .072.016.072.048 0 .416-.08.952-.24 1.608-.144.64-.312 1.056-.504 1.248-.176.176-1.272.264-3.288.264z" fill="#fff"/></g><g filter="url(#b)"><circle cx="21.5" cy="21.5" r="16.5" stroke="#DD65F0" stroke-width="2"/></g><defs><filter id="b" x="0" y="0" width="43" height="43" filterUnits="userSpaceOnUse" color-interpolation-filters="sRGB"><feFlood flood-opacity="0" result="BackgroundImageFix"/><feBlend in="SourceGraphic" in2="BackgroundImageFix" result="shape"/><feGaussianBlur stdDeviation="2" result="effect1_foregroundBlur_44_453"/></filter></defs></svg>

<svg width="43" height="43" viewBox="0 0 43 43" fill="none" xmlns="http://www.w3.org/2000/svg">
<mask id="mask0_44_453" style="mask-type:alpha" maskUnits="userSpaceOnUse" x="4" y="4" width="35" height="35">
<circle cx="21.5" cy="21.5" r="17.5" fill="#C9CC42"/>
</mask>
<g mask="url(#mask0_44_453)">
<rect x="-17.7241" y="-9.27586" width="82.8736" height="63.9655" fill="#E333DC"/>
<path d="M44.6204 4C28.1879 39.5046 16.8689 42.2229 -7.93866 9.3595L-4.42453 43.8216L48.1346 38.4621L44.6204 4Z" fill="#D51DCD"/>
<path d="M23.896 29.192C23.896 29.192 22.448 29.136 19.552 29.024C18.64 29.024 17.968 29.04 17.536 29.072C17.104 29.104 16.872 29.12 16.84 29.12C16.76 29.056 16.72 28.64 16.72 27.872C16.72 27.088 16.784 26.608 16.912 26.432C18.176 25.248 19.44 23.952 20.704 22.544C23.168 19.808 24.4 17.936 24.4 16.928C24.4 15.92 23.648 15.416 22.144 15.416C20.928 15.416 20.096 15.848 19.648 16.712C19.328 17.304 19.104 17.952 18.976 18.656C18.944 18.688 18.816 18.704 18.592 18.704C18.384 18.704 18.08 18.664 17.68 18.584C17.296 18.504 17.072 18.432 17.008 18.368C16.944 18.304 16.912 18 16.912 17.456C16.912 16.896 16.944 16.176 17.008 15.296C17.072 14.4 17.136 13.928 17.2 13.88C17.264 13.816 17.536 13.72 18.016 13.592C19.36 13.224 20.832 13.04 22.432 13.04C24.048 13.04 25.336 13.376 26.296 14.048C27.272 14.704 27.76 15.552 27.76 16.592C27.76 17.728 27.008 19.24 25.504 21.128C24.32 22.616 23.032 24.112 21.64 25.616L20.968 26.36C20.92 26.472 21.376 26.528 22.336 26.528C24.96 26.528 26.8 26.36 27.856 26.024C27.904 26.024 27.928 26.04 27.928 26.072C27.928 26.488 27.848 27.024 27.688 27.68C27.544 28.32 27.376 28.736 27.184 28.928C27.008 29.104 25.912 29.192 23.896 29.192Z" fill="white"/>
</g>
<g filter="url(#filter0_f_44_453)">
<circle cx="21.5" cy="21.5" r="16.5" stroke="#DD65F0" stroke-width="2"/>
</g>
<defs>
<filter id="filter0_f_44_453" x="0" y="0" width="43" height="43" filterUnits="userSpaceOnUse" color-interpolation-filters="sRGB">
<feFlood flood-opacity="0" result="BackgroundImageFix"/>
<feBlend mode="normal" in="SourceGraphic" in2="BackgroundImageFix" result="shape"/>
<feGaussianBlur stdDeviation="2" result="effect1_foregroundBlur_44_453"/>
</filter>
</defs>
</svg>
